src/general/components/img/notification.svg

<svg height="50" viewBox="0 0 50 50" width="50" xmlns="http://www.w3.org/2000/svg"><path d="m43.9998154 39.4485878c0 .461671-.1802355.9044331-.5010568 1.2308838s-.7559483.5098488-1.2096581.5098488h-34.57838562c-.94480174 0-1.71071488-.7793525-1.71071488-1.7407326 0-.96138.76591314-1.7407325 1.71071488-1.7407325h.83291366v-15.4686673c.00747279-7.6013531 5.04505396-14.24428329 12.26926706-16.17917035.3591005-2.34466019 1.6658273-4.06001765 4.1645683-4.06001765s3.8054678 1.73058252 4.1645683 4.06001765c7.2440067 1.91551207 12.3057209 8.56324255 12.3191421 16.17917035v15.4432921h.8528637c.4537253.0066811.8862532.1965181 1.2024081.5277383.3161549.3312203.4900315.7766841.4833693 1.2383694zm-18.997414 8.5514122c2.9894665.0000013 5.4136798-2.464478 5.4164326-5.5063989h-10.8328651c.0027527 3.0419209 2.4269661 5.5064002 5.4164325 5.5063989z" fill="#2d2d2d" stroke="#fff" stroke-width="2.52175"/></svg>

<?xml version="1.0" encoding="UTF-8"?>
<svg width="50px" height="50px" viewBox="0 0 50 50" version="1.1" xmlns="http://www.w3.org/2000/svg" xmlns:xlink="http://www.w3.org/1999/xlink">
    <!-- Generator: Sketch 48.2 (47327) - http://www.bohemiancoding.com/sketch -->
    <title>Artboard 5</title>
    <desc>Created with Sketch.</desc>
    <defs></defs>
    <g id="Symbols" stroke="none" stroke-width="1" fill="none" fill-rule="evenodd">
        <g id="Artboard-5" fill="#2D2D2D" fill-rule="nonzero" stroke="#FFFFFF" stroke-width="2.52175019">
            <path d="M43.9998154,39.4485878 C43.9998154,39.9102588 43.8195799,40.3530209 43.4987586,40.6794716 C43.1779373,41.0059223 42.7428103,41.1893204 42.2891005,41.1893204 L7.71071488,41.1893204 C6.76591314,41.1893204 6,40.4099679 6,39.4485878 C6,38.4872078 6.76591314,37.7078553 7.71071488,37.7078553 L8.54362854,37.7078553 L8.54362854,22.239188 C8.55110133,14.6378349 13.5886825,7.99490471 20.8128956,6.06001765 C21.1719961,3.71535746 22.4787229,2 24.9774639,2 C27.4762049,2 28.7829317,3.73058252 29.1420322,6.06001765 C36.3860389,7.97552972 41.4477531,14.6232602 41.4611743,22.239188 L41.4611743,37.6824801 L42.314038,37.6824801 C42.7677633,37.6891612 43.2002912,37.8789982 43.5164461,38.2102184 C43.832601,38.5414387 44.0064776,38.9869025 43.9998154,39.4485878 Z M25.0024014,48 C27.9918679,48.0000013 30.4160812,45.535522 30.418834,42.4936011 L19.5859689,42.4936011 C19.5887216,45.535522 22.012935,48.0000013 25.0024014,48 Z" id="Shape"></path>
        </g>
    </g>
</svg>
